!! 00000] TT[00
!! NN
!!!OTL: Chuanfu qu
!!!ARE: Asia, China, Shanxi, shanbei (Norden)
!! Ethnic Group: Han
!! I, 70 (1)
!!!SCT: C0021
!!!YEM: Copyright 1995, estate of Helmut Schaffrath.
**kern
*ICvox
*Ivox
*M4/4
*k[b-e-]
*B-:
{8.ccc
16fff
8.bb-
16gg
2ff
=1
4ccc
4fff
4ccc
4fff}
=2
{8ccc
8fff
8ccc
8bb-
4gg
8ff
8gg
=3
2bb-
[4ccc
8ccc]
8r}
=4
{8.ccc
16fff
8ccc
8bb-
4gg
8ff
8gg
=5
2bb-
[4ccc
8ccc]
8r}
=6
{8.ccc
16fff
8ccc
8bb-
4gg
8ff
8gg
=7
2bb-
[4ccc
8ccc]
8r}
=8
{8.ccc
16fff
8ccc
8bb-
4gg
8ff
8gg
=9
2bb-
[4ccc
8ccc]
8r}
=10
{8.ccc
16fff
8ccc
8bb-
4gg
8ff
8gg
=11
2bb-
[4ccc
8ccc]
8r}
=12
{4.ccc
8ccc
4ggg
8fff
8fff
=13
8ccc
8eee-
8ccc
8bb-
8bb-
8ccc
8eee-
8ccc
=14
[2bb-
4bb-]
4r}
==
!!!AGN: Bootslied (laut Titel); Haozi
!! Wenig Verzierungen. Sehr berÅhmt in Nordchina.
!!!ONB: ESAC (Essen Associative Code) Database: CHINA_005
!!!AMT: simple quadruple
!!!AIN: vox
!!!EED: Helmut Schaffrath
!!!EEV: 1.0
*-
